X:34
T:Spindle Shanks
R:reel
M:C|
K:D
"D"F2EG FDDE|"D"FDAG FDDE|"Bm7"F2EG FDDE|
1 "G"(3FGA Bc "D"dBAG:|2 "G"(3FGA Bc "D"d2cd||
"A"~e3d efed|"Asus4"cdef g2fg|
1 "A"~e3d efed|"Asus4"cABc "D"d2cd:|2 "A"af~f2 "G"ge~e2|"D"dfec dBAG||
